assets/src/svg/individual/email.svg

<svg width="20" height="20" viewBox="0 0 20 20" fill="none" xmlns="http://www.w3.org/2000/svg"><path fill-rule="evenodd" clip-rule="evenodd" d="M2 2H18C19.1046 2 20 2.89543 20 4V6L10 10L0 6V4C0 2.89543 0.89543 2 2 2ZM2 18C0.89543 18 0 17.1046 0 16V8L10 12L20 8V16C20 17.1046 19.1046 18 18 18H2Z" fill="black"/></svg>

<svg xmlns="http://www.w3.org/2000/svg" width="20" height="20" fill="none"><path fill="#000" fill-rule="evenodd" d="M2 2h16a2 2 0 0 1 2 2v2l-10 4L0 6V4a2 2 0 0 1 2-2Zm0 16a2 2 0 0 1-2-2V8l10 4 10-4v8a2 2 0 0 1-2 2H2Z" clip-rule="evenodd"/></svg>
